X: 1283
T: I'll gang nae mair to yon town.   a Reel.
%R: reel
B: Niel Gow & Sons "Complete Repository" v.1 p.28 #3
Z: 2021 John Chambers <jc:trillian.mit.edu>
M: C|
L: 1/8
K: F
% - - - - - - - - - -
% Voice 1 formatted for compactness and proofreading.
V: 1 staves=2
A |\
Fffc TA2Fc | (A/B/c) .F.c AGGg | (a/g/f/e/) fc TA2Fc | (A/B/c) GB AF F :| B | A>Fc>F dF cf | AF (d/c/B/A/) BGGB |
A>Fc>F dFcF | (A/B/c) GB AFFB || A>Fc>F dF cf | AF (d/c/B/A/) BGGB | A>Fc>F dFcF | (A/B/c) (.G.B) AF F |]
% - - - - - - - - - -
% Voice 2 preserves the book's staff layout.
V: 2 clef=bass middle=d
z |\
f2f2 f2f2 | f2a2 c'2c2 | f2f2 f2a2 | c'2c2 f2F :| z | f2a2 b2a2 | f2a2 b2c'2 |
a2f2 b2a2 | c'2c2 f2F2 || f2a2 b2a2 | f2a2 b2c'2 | a2f2 b2a2 | c'2c2 f2F |]


